assets/clients/grupo-asv-black.svg

<svg width="106" height="16" viewBox="0 0 106 16" fill="none" xmlns="http://www.w3.org/2000/svg">
<path fill-rule="evenodd" clip-rule="evenodd" d="M11.3367 6.87151V14.0002H9.87459C9.76177 13.4783 9.60791 12.9657 9.41435 12.4668C8.43915 13.6255 7.19655 14.2055 5.68725 14.2055C3.9044 14.2055 2.51683 13.5835 1.52521 12.3402C0.532916 11.0968 0.0371094 9.48818 0.0371094 7.51551C0.0371094 5.39351 0.566425 3.68751 1.62437 2.39884C2.68301 1.10951 4.1205 0.46551 5.93755 0.46551C7.45984 0.46551 8.68876 0.88151 9.62361 1.71484C10.5585 2.54818 11.1295 3.65818 11.3367 5.04484L8.29143 5.43551C8.04455 3.82084 7.25947 3.01418 5.93755 3.01418C5.06903 3.01418 4.41252 3.39618 3.96868 4.16084C3.52417 4.92618 3.30259 6.01818 3.30259 7.43751C3.30259 8.80484 3.54332 9.84951 4.02408 10.5722C4.50484 11.2948 5.18939 11.6562 6.07774 11.6562C6.65219 11.6562 7.16441 11.4742 7.61508 11.1095C8.06644 10.7448 8.29143 10.1628 8.29143 9.36151H5.71666V6.87151H11.3367V6.87151ZM17.0867 8.71684V14.0002H13.8616V0.670177H19.8721C20.98 0.670177 21.8704 0.79551 22.5413 1.04618C23.2128 1.29684 23.7688 1.75751 24.2099 2.42818C24.6503 3.09818 24.8705 3.84418 24.8705 4.66418C24.8705 6.26551 24.0793 7.41484 22.4961 8.11151L25.021 14.0002H21.4847L19.3811 8.71684H17.0867V8.71684ZM17.0867 3.04351V6.44151H19.0501C19.6916 6.44151 20.158 6.39751 20.4479 6.30951C20.7386 6.22218 20.9971 6.02684 21.2241 5.72351C21.4512 5.42084 21.5647 5.07418 21.5647 4.68351C21.5647 4.31284 21.4512 3.98084 21.2241 3.68751C20.9971 3.39418 20.7502 3.21418 20.4828 3.14551C20.2161 3.07751 19.7148 3.04284 18.9803 3.04284H17.0867V3.04351ZM38.1239 0.670177V8.97084C38.1239 10.3122 37.9666 11.3095 37.6534 11.9642C37.3389 12.6182 36.7596 13.1555 35.915 13.5755C35.0705 13.9955 33.9899 14.2055 32.6742 14.2055C31.3584 14.2055 30.3121 14.0162 29.5338 13.6388C28.7556 13.2615 28.1729 12.7242 27.7859 12.0275C27.3981 11.3308 27.2046 10.3122 27.2046 8.97084V0.670177H30.6807V8.97084C30.6807 9.68684 30.7422 10.2142 30.866 10.5528C30.9891 10.8915 31.2367 11.1595 31.6073 11.3588C31.978 11.5568 32.4341 11.6562 32.9751 11.6562C33.5762 11.6562 34.0652 11.5588 34.4427 11.3628C34.8202 11.1682 35.0705 10.9095 35.1935 10.5868C35.3173 10.2648 35.3789 9.72618 35.3789 8.97084V0.670177H38.1239V0.670177ZM43.9143 9.04884V14.0002H40.659V0.670177H46.0479C47.2502 0.670177 48.17 0.79551 48.8081 1.04618C49.4454 1.29684 50.0151 1.74418 50.5157 2.38884C51.017 3.03351 51.2673 3.82418 51.2673 4.76218C51.2673 5.41951 51.1332 6.06084 50.8665 6.68551C50.5998 7.31084 50.2216 7.80218 49.7347 8.16018C49.2471 8.51818 48.7745 8.75618 48.317 8.87351C47.8588 8.99018 47.1435 9.04884 46.1683 9.04884H43.9143V9.04884ZM43.8042 6.62684H45.8872C46.6819 6.62684 47.2392 6.44818 47.56 6.09018C47.8724 5.75297 48.044 5.3139 48.0407 4.85951C48.0407 4.31951 47.8623 3.88951 47.5046 3.57018C47.1476 3.25151 46.6046 3.09218 45.877 3.09218H43.8035V6.62684H43.8042ZM58.1894 14.2055C56.3464 14.2055 54.9205 13.5315 53.9118 12.1835C52.9031 10.8362 52.3991 9.20551 52.3991 7.29151C52.3991 5.34484 52.9099 3.72018 53.9316 2.41818C54.9533 1.11618 56.4093 0.464844 58.2995 0.464844C60.2095 0.464844 61.6505 1.16018 62.6216 2.55018C63.594 3.94018 64.0796 5.53018 64.0796 7.32018C64.0796 9.25351 63.579 10.8848 62.5771 12.2135C61.5752 13.5415 60.1124 14.2055 58.1894 14.2055ZM58.279 3.01351C56.596 3.01351 55.7541 4.45218 55.7541 7.32951C55.7541 10.2135 56.5953 11.6562 58.279 11.6562C59.9086 11.6562 60.7231 10.2168 60.7231 7.33951C60.7231 4.45551 59.9086 3.01284 58.279 3.01284V3.01351ZM78.0134 0.66951L82.2917 14.0002H78.845L78.0141 11.2562H73.5867L72.7251 14.0002H69.9198L74.298 0.670177H78.0141L78.0134 0.66951ZM74.3568 8.79418H77.2619L75.8093 4.11684L74.3568 8.79418V8.79418ZM93.2111 3.60018L90.4859 4.48884C90.1187 3.43418 89.3411 2.90684 88.1518 2.90684C86.8833 2.90684 86.2486 3.30751 86.2486 4.10818C86.2486 4.42751 86.3669 4.69751 86.6042 4.91884C86.8415 5.14018 87.377 5.33218 88.212 5.49484C89.6078 5.76818 90.6295 6.04484 91.2778 6.32484C91.9254 6.60484 92.4712 7.05618 92.9157 7.67818C93.3602 8.29951 93.5818 8.99418 93.5818 9.76284C93.5818 10.9668 93.1058 12.0088 92.1538 12.8875C91.2026 13.7662 89.7918 14.2062 87.9214 14.2062C86.5194 14.2062 85.3254 13.8948 84.3406 13.2728C83.3558 12.6515 82.7062 11.7288 82.3916 10.5048L85.3569 9.85018C85.6913 11.0942 86.6193 11.7155 88.1423 11.7155C88.8767 11.7155 89.4245 11.5775 89.7849 11.3008C90.1453 11.0242 90.3259 10.6942 90.3259 10.3095C90.3259 9.91884 90.1617 9.61618 89.8348 9.40151C89.508 9.18618 88.8767 8.98484 87.9419 8.79551C86.198 8.44418 84.9561 7.96418 84.2148 7.35551C83.4742 6.74684 83.1035 5.85618 83.1035 4.68418C83.1035 3.49951 83.5453 2.50018 84.4302 1.68618C85.3151 0.872844 86.516 0.466177 88.0322 0.466177C90.7164 0.466177 92.4431 1.51084 93.2111 3.60018V3.60018ZM105.833 0.670844L101.716 14.0002H98.2697L94.1624 0.670177H97.5681L100.304 10.2015L103.138 0.670177H105.833L105.833 0.670844Z" fill="#191919"/>
</svg>

<svg width="106" height="16" fill="none" xmlns="http://www.w3.org/2000/svg"><path fill-rule="evenodd" clip-rule="evenodd" d="M11.337 6.872V14H9.875a10.194 10.194 0 0 0-.46-1.533c-.976 1.159-2.218 1.739-3.728 1.739-1.783 0-3.17-.622-4.162-1.866C.533 11.097.037 9.488.037 7.516c0-2.122.53-3.828 1.587-5.117C2.683 1.109 4.121.466 5.938.466c1.522 0 2.75.416 3.686 1.249.934.833 1.505 1.943 1.713 3.33l-3.046.39c-.246-1.614-1.032-2.42-2.353-2.42-.869 0-1.525.381-1.97 1.146-.444.765-.665 1.857-.665 3.277 0 1.367.24 2.412.721 3.134.48.723 1.165 1.084 2.054 1.084.574 0 1.086-.182 1.537-.546.451-.365.676-.947.676-1.748H5.717v-2.49h5.62Zm5.75 1.845V14h-3.225V.67h6.01c1.108 0 1.998.126 2.67.376.67.25 1.227.712 1.668 1.382.44.67.66 1.416.66 2.236 0 1.602-.79 2.75-2.374 3.448L25.021 14h-3.536L19.38 8.717h-2.294Zm0-5.673v3.398h1.963c.642 0 1.108-.044 1.398-.132.29-.088.55-.283.776-.586.227-.303.34-.65.34-1.04 0-.371-.113-.703-.34-.996-.227-.294-.474-.474-.741-.542-.267-.068-.768-.103-1.503-.103h-1.893ZM38.124.67v8.3c0 1.342-.157 2.34-.47 2.994-.315.654-.894 1.191-1.739 1.611-.844.42-1.925.63-3.24.63-1.317 0-2.363-.189-3.141-.566-.778-.377-1.361-.915-1.748-1.611-.388-.697-.581-1.716-.581-3.057V.67h3.476v8.3c0 .716.061 1.243.185 1.582.123.338.37.606.741.806.371.198.827.297 1.368.297.601 0 1.09-.097 1.468-.293.377-.195.628-.454.75-.776.124-.322.186-.86.186-1.616V.67h2.745Zm5.79 8.379V14H40.66V.67h5.389c1.202 0 2.122.126 2.76.376.637.25 1.207.698 1.708 1.343.501.645.751 1.435.751 2.373 0 .658-.134 1.299-.4 1.924-.267.625-.645 1.116-1.132 1.474-.488.358-.96.596-1.418.714-.458.116-1.173.175-2.149.175h-2.254Zm-.11-2.422h2.083c.795 0 1.352-.179 1.673-.537.312-.337.484-.776.48-1.23 0-.54-.178-.97-.535-1.29-.357-.318-.9-.478-1.628-.478h-2.074v3.535h.001Zm14.385 7.579c-1.843 0-3.269-.675-4.277-2.022-1.009-1.348-1.513-2.978-1.513-4.892 0-1.947.51-3.572 1.533-4.874C54.953 1.116 56.409.465 58.299.465c1.91 0 3.352.695 4.323 2.085.972 1.39 1.458 2.98 1.458 4.77 0 1.934-.501 3.565-1.503 4.893-1.002 1.329-2.465 1.993-4.388 1.993Zm.09-11.192c-1.683 0-2.525 1.438-2.525 4.316 0 2.883.841 4.326 2.525 4.326 1.63 0 2.444-1.44 2.444-4.316 0-2.884-.814-4.327-2.444-4.327ZM78.013.67 82.292 14h-3.447l-.83-2.744h-4.428L72.725 14H69.92L74.298.67h3.716Zm-3.656 8.124h2.905l-1.453-4.677-1.452 4.677ZM93.21 3.6l-2.725.889c-.367-1.055-1.145-1.582-2.334-1.582-1.269 0-1.903.4-1.903 1.201 0 .32.118.59.355.81.237.222.773.414 1.608.577 1.396.273 2.417.55 3.066.83.647.28 1.193.731 1.638 1.353.444.622.666 1.316.666 2.085 0 1.204-.476 2.246-1.428 3.124-.951.88-2.362 1.32-4.233 1.32-1.402 0-2.596-.312-3.58-.934-.985-.621-1.635-1.544-1.95-2.768l2.966-.655c.334 1.244 1.262 1.866 2.785 1.866.735 0 1.282-.138 1.643-.415.36-.277.54-.607.54-.992 0-.39-.163-.693-.49-.907-.327-.216-.958-.417-1.893-.606-1.744-.352-2.986-.832-3.727-1.44-.74-.61-1.112-1.5-1.112-2.672 0-1.184.442-2.184 1.327-2.998.885-.813 2.086-1.22 3.602-1.22 2.684 0 4.411 1.045 5.18 3.134ZM105.833.67 101.716 14H98.27L94.162.67h3.406l2.736 9.531 2.834-9.53h2.695Z" fill="#191919"/></svg>
